resources/WikimediaUI-icons-SVGs/imageLayoutFrame.svg

<?xml version="1.0" encoding="UTF-8"?>
<svg xmlns="http://www.w3.org/2000/svg" width="20" height="20" viewBox="0 0 20 20">
	<title>
		image layout frame
	</title>
	<path d="M3 2a2 2 0 0 0-2 2v12a2 2 0 0 0 2 2h14a2 2 0 0 0 2-2V4a2 2 0 0 0-2-2zm0 15a1 1 0 0 1-1-1V4a1 1 0 0 1 1-1h14a1 1 0 0 1 1 1v12a1 1 0 0 1-1 1z"/>
	<path d="M17 4H3v12h14zM5 13l2.5-3 2 2L12 9l3 4z"/>
</svg>

<?xml version="1.0" encoding="UTF-8"?>
<svg xmlns="http://www.w3.org/2000/svg" width="20" height="20" viewBox="0 0 20 20">
	<title>
		image layout frame
	</title>
	<path d="M3 2A2 2 0 0 0 1 4V16a2 2 0 0 0 2 2H17a2 2 0 0 0 2-2V4A2 2 0 0 0 17 2Zm0 15H3a1 1 0 0 1-1-1V4A1 1 0 0 1 3 3H17a1 1 0 0 1 1 1V16A1 1 0 0 1 17 17Z"/>
	<path d="M17 4H3v12h14zM5 13l2.5-3 2 2L12 9l3 4Z"/>
</svg>
